X:45
T:Surveyor's Reel
C:Andy De Jarlis
M:2/4
L:1/16
Z:abc by Bruce Osborne - bosborne@kos.net
K:F
c2|f2fe fgaf|c2c=B c2Ac|f2fe fgaf|dd2d d2fg|!
agfa g2eg|fefd c2Ac|BAGF EFGE|F2FF F2:|!
|:cB|AFcF dFcF|AFcF G2cB|AFcF dFcF|BAGE F2cB|!
AFcF dFcF|AFcF G2cB|Acfa gfeg|f2fe f2:|!
